img/discard.svg

<svg width="123" height="67" viewBox="0 0 123 67" fill="none" xmlns="http://www.w3.org/2000/svg">
<path d="M122.466 29.7277C122.956 29.0596 122.811 28.1209 122.143 27.6311L111.256 19.6492C110.587 19.1594 109.649 19.304 109.159 19.9721C108.669 20.6402 108.814 21.5789 109.482 22.0687L119.16 29.1637L112.065 38.8416C111.575 39.5097 111.719 40.4484 112.388 40.9382C113.056 41.428 113.994 41.2834 114.484 40.6153L122.466 29.7277ZM90.3865 35.1122L121.485 30.3234L121.028 27.3583L89.9299 32.1471L90.3865 35.1122Z" fill="#C62222"/>
<rect x="1.75133" y="-0.612905" width="20.1813" height="38.5613" transform="matrix(0.474929 -0.880024 0.920035 0.391835 2.77448 44.5239)" fill="white" stroke="black" stroke-width="2.51093"/>
<rect x="1.85093" y="0.282231" width="21.452" height="36.4633" transform="matrix(0.837589 -0.5463 0.636711 0.771102 11.7598 26.2889)" fill="white" stroke="black" stroke-width="2.51093"/>
<rect x="1.65672" y="0.799975" width="22.0906" height="35.3153" transform="matrix(0.955728 -0.294252 0.36388 0.931446 26.4209 15.4503)" fill="white" stroke="black" stroke-width="2.51093"/>
<rect x="1.00165" y="1.42553" width="22.2904" height="34.9343" transform="matrix(0.988113 0.153729 -0.190284 0.981729 48.0471 9.32226)" fill="white" stroke="black" stroke-width="2.51093"/>
<rect x="0.655268" y="1.57267" width="21.9921" height="35.4837" transform="matrix(0.939042 0.343802 -0.41711 0.908856 62.8348 9.0538)" fill="white" stroke="black" stroke-width="2.51093"/>
<g filter="url(#filter0_d_1570_9280)">
<rect width="26.6448" height="40.1554" transform="matrix(0.908039 0.418886 -0.504813 0.863228 81.562 8.24512)" fill="#D57575"/>
<rect x="0.554534" y="1.76322" width="23.8943" height="37.405" transform="matrix(0.908039 0.418886 -0.504813 0.863228 82.5031 8.25399)" stroke="black" stroke-width="2.75049"/>
</g>
<path d="M13.9285 38.9561L12.7683 39.0703C12.7742 38.874 12.7786 38.6719 12.7815 38.4639C12.7874 38.2529 12.7917 38.0449 12.7947 37.8398C12.7976 37.6318 12.8005 37.4297 12.8035 37.2334C12.8064 37.0342 12.8079 36.8467 12.8079 36.6709C12.8108 36.2549 12.8123 35.8491 12.8123 35.4536L12.7947 34.2495L12.4519 34.8516L11.6873 34.2012C11.7224 34.1514 11.7649 34.0928 11.8147 34.0254C11.8645 33.958 11.9172 33.8862 11.9729 33.8101C12.0286 33.7339 12.0857 33.6562 12.1443 33.5771C12.2029 33.4951 12.26 33.416 12.3157 33.3398C12.4446 33.1611 12.5793 32.9751 12.72 32.7817L13.8274 32.729C13.8215 32.9106 13.8157 33.0967 13.8098 33.2871C13.8069 33.4746 13.804 33.6606 13.801 33.8452C13.7981 34.0269 13.7952 34.2026 13.7922 34.3726C13.7922 34.5425 13.7922 34.6992 13.7922 34.8428C13.7922 34.957 13.7922 35.061 13.7922 35.1548C13.7922 35.2485 13.7937 35.3291 13.7966 35.3965C13.7966 35.4756 13.7981 35.5459 13.801 35.6074C13.801 35.9473 13.8069 36.3047 13.8186 36.6797C13.8215 36.8379 13.8259 37.0093 13.8318 37.1938C13.8406 37.3755 13.8494 37.5645 13.8582 37.7607C13.8669 37.9541 13.8772 38.1519 13.8889 38.354C13.9006 38.5562 13.9138 38.7568 13.9285 38.9561Z" fill="black"/>
<path d="M26.5789 29.9937C26.5759 30.0083 26.5745 30.0244 26.5745 30.042C26.5715 30.0566 26.5701 30.0757 26.5701 30.0991C26.5701 30.1226 26.5701 30.1504 26.5701 30.1826C26.5701 30.2617 26.573 30.3716 26.5789 30.5122C26.5847 30.6499 26.5994 30.8154 26.6228 31.0088C26.3826 31.0029 26.1584 31 25.9504 31C25.7424 31 25.5461 31 25.3616 31C24.9954 31 24.6833 31.0029 24.4255 31.0088C24.1677 31.0146 23.9553 31.0205 23.7883 31.0264C23.595 31.0352 23.4353 31.0439 23.3093 31.0527C23.3064 31.0439 23.3049 31.0322 23.3049 31.0176C23.302 31.0059 23.3005 30.9912 23.3005 30.9736C23.3005 30.9561 23.3005 30.9355 23.3005 30.9121C23.3005 30.8125 23.3123 30.6719 23.3357 30.4902C23.3591 30.3086 23.4104 30.1035 23.4895 29.875C23.5715 29.6436 23.6917 29.3989 23.8499 29.1411C24.011 28.8833 24.2278 28.627 24.5002 28.3721C24.6614 28.2197 24.8123 28.0645 24.9529 27.9062C25.0935 27.748 25.2166 27.5811 25.322 27.4053C25.4275 27.2295 25.5095 27.042 25.5681 26.8428C25.6296 26.6406 25.6604 26.4209 25.6604 26.1836C25.6604 25.9902 25.6414 25.8306 25.6033 25.7046C25.5652 25.5757 25.5125 25.4746 25.4451 25.4014C25.3806 25.3252 25.3044 25.2725 25.2166 25.2432C25.1316 25.2109 25.0393 25.1948 24.9397 25.1948C24.8958 25.1978 24.8518 25.2051 24.8079 25.2168C24.7698 25.2285 24.7273 25.2461 24.6804 25.2695C24.6335 25.293 24.5881 25.3252 24.5442 25.3662C24.5881 25.4248 24.6218 25.4863 24.6453 25.5508C24.6716 25.6152 24.6921 25.6753 24.7068 25.731C24.7214 25.7954 24.7302 25.8599 24.7332 25.9243C24.7332 26.0269 24.7126 26.1162 24.6716 26.1924C24.6306 26.2686 24.5779 26.333 24.5134 26.3857C24.4519 26.4385 24.3831 26.478 24.3069 26.5044C24.2307 26.5308 24.156 26.5439 24.0828 26.5439C24.0271 26.5439 23.9524 26.5366 23.8586 26.522C23.7678 26.5044 23.6785 26.4663 23.5906 26.4077C23.5027 26.3491 23.4265 26.2627 23.3621 26.1484C23.2976 26.0342 23.2654 25.8789 23.2654 25.6826C23.2654 25.4893 23.3093 25.3149 23.3972 25.1597C23.488 25.0015 23.6082 24.8667 23.7576 24.7554C23.9099 24.6411 24.0857 24.5547 24.2849 24.4961C24.4841 24.4346 24.6936 24.4038 24.9133 24.4038C25.1301 24.4038 25.3455 24.4419 25.5593 24.5181C25.7732 24.5942 25.9636 24.7085 26.1306 24.8608C26.3005 25.0132 26.4382 25.2036 26.5437 25.4321C26.6492 25.6577 26.7019 25.9214 26.7019 26.2231C26.7019 26.5894 26.6506 26.9131 26.5481 27.1943C26.4485 27.4727 26.3225 27.7231 26.1702 27.9458C26.0178 28.1655 25.8508 28.3662 25.6692 28.5479C25.4905 28.7266 25.322 28.8994 25.1638 29.0664C24.9529 29.2861 24.7903 29.4985 24.676 29.7036C24.5647 29.9058 24.4841 30.0771 24.4343 30.2178C24.7332 30.209 25.0129 30.1929 25.2737 30.1694C25.5344 30.146 25.7615 30.1226 25.9548 30.0991C26.1482 30.0757 26.3005 30.0537 26.4119 30.0332C26.5232 30.0127 26.5789 29.9995 26.5789 29.9937Z" fill="black"/>
<path d="M38.5002 18.3833C38.5032 18.3862 38.509 18.3877 38.5178 18.3877C38.5266 18.3906 38.5442 18.3921 38.5706 18.3921C38.6145 18.3921 38.6716 18.3877 38.7419 18.3789C38.8123 18.3701 38.887 18.3496 38.9661 18.3174C39.0481 18.2852 39.1287 18.2383 39.2078 18.1768C39.2898 18.1152 39.363 18.0332 39.4275 17.9307C39.4949 17.8252 39.5491 17.6963 39.5901 17.5439C39.6311 17.3916 39.6516 17.2085 39.6516 16.9946C39.6516 16.8774 39.6296 16.7705 39.5857 16.6738C39.5417 16.5742 39.4846 16.4893 39.4143 16.4189C39.3469 16.3486 39.2708 16.2944 39.1858 16.2563C39.1038 16.2153 39.0217 16.1948 38.9397 16.1948C38.8958 16.1978 38.8518 16.2051 38.8079 16.2168C38.7698 16.2285 38.7273 16.2461 38.6804 16.2695C38.6335 16.293 38.5881 16.3252 38.5442 16.3662C38.5881 16.4248 38.6218 16.4863 38.6453 16.5508C38.6716 16.6152 38.6921 16.6753 38.7068 16.731C38.7214 16.7954 38.7302 16.8599 38.7332 16.9243C38.7332 17.0269 38.7126 17.1162 38.6716 17.1924C38.6306 17.2686 38.5779 17.333 38.5134 17.3857C38.4519 17.4385 38.3831 17.478 38.3069 17.5044C38.2307 17.5308 38.1575 17.5439 38.0872 17.5439C38.0286 17.5439 37.9524 17.5366 37.8586 17.522C37.7678 17.5044 37.6785 17.4663 37.5906 17.4077C37.5027 17.3491 37.4265 17.2627 37.3621 17.1484C37.2976 17.0342 37.2654 16.8789 37.2654 16.6826C37.2654 16.4893 37.3093 16.3149 37.3972 16.1597C37.488 16.0015 37.6082 15.8667 37.7576 15.7554C37.9099 15.6411 38.0857 15.5547 38.2849 15.4961C38.4841 15.4346 38.6936 15.4038 38.9133 15.4038C39.1331 15.4038 39.3499 15.4419 39.5637 15.5181C39.7776 15.5942 39.968 15.7085 40.135 15.8608C40.3049 16.0132 40.4426 16.2036 40.5481 16.4321C40.6536 16.6577 40.7063 16.9214 40.7063 17.2231C40.7063 17.4312 40.677 17.6216 40.6184 17.7944C40.5627 17.9673 40.488 18.1226 40.3943 18.2603C40.3035 18.395 40.1995 18.5137 40.0823 18.6162C39.968 18.7158 39.8508 18.7993 39.7307 18.8667C39.8508 18.9194 39.968 18.9883 40.0823 19.0732C40.1995 19.1582 40.3035 19.2607 40.3943 19.3809C40.488 19.498 40.5627 19.6357 40.6184 19.7939C40.677 19.9521 40.7063 20.1323 40.7063 20.3345C40.7063 20.6362 40.6536 20.9014 40.5481 21.1299C40.4426 21.3555 40.3049 21.5444 40.135 21.6968C39.968 21.8491 39.7776 21.9634 39.5637 22.0396C39.3499 22.1157 39.1331 22.1538 38.9133 22.1538C38.6936 22.1538 38.4841 22.123 38.2849 22.0615C38.0857 22.0029 37.9099 21.918 37.7576 21.8066C37.6082 21.6924 37.488 21.5576 37.3972 21.4023C37.3093 21.2441 37.2654 21.0684 37.2654 20.875C37.2654 20.6787 37.2976 20.5234 37.3621 20.4092C37.4265 20.2949 37.5027 20.2085 37.5906 20.1499C37.6785 20.0913 37.7678 20.0532 37.8586 20.0356C37.9524 20.0181 38.0286 20.0093 38.0872 20.0093C38.1575 20.0093 38.2307 20.0239 38.3069 20.0532C38.3831 20.0796 38.4519 20.1191 38.5134 20.1719C38.5779 20.2246 38.6306 20.2905 38.6716 20.3696C38.7126 20.4458 38.7332 20.5337 38.7332 20.6333C38.7302 20.6978 38.7229 20.7622 38.7112 20.8267C38.6995 20.8823 38.6804 20.9424 38.6541 21.0068C38.6277 21.0713 38.5911 21.1328 38.5442 21.1914C38.5881 21.2354 38.6335 21.269 38.6804 21.2925C38.7273 21.313 38.7698 21.3291 38.8079 21.3408C38.8518 21.3525 38.8958 21.3599 38.9397 21.3628C39.0217 21.3628 39.1038 21.3438 39.1858 21.3057C39.2708 21.2646 39.3469 21.209 39.4143 21.1387C39.4846 21.0684 39.5417 20.9849 39.5857 20.8882C39.6296 20.7886 39.6516 20.6787 39.6516 20.5586C39.6516 20.3418 39.6296 20.1572 39.5857 20.0049C39.5417 19.8496 39.4846 19.7207 39.4143 19.6182C39.344 19.5156 39.2664 19.4351 39.1814 19.3765C39.0964 19.3179 39.0129 19.2739 38.9309 19.2446C38.8489 19.2124 38.7727 19.1934 38.7024 19.1875C38.635 19.1787 38.5823 19.1743 38.5442 19.1743H38.5002V18.3833Z" fill="black"/>
<path d="M53.2737 21.0703C53.2795 20.8271 53.2854 20.5752 53.2913 20.3145C53.2971 20.0508 53.3 19.7812 53.3 19.5059H51.1467L51.1292 18.8115C51.1672 18.7617 51.2229 18.665 51.2961 18.5215C51.3694 18.3779 51.4529 18.2065 51.5466 18.0073C51.6433 17.8052 51.7458 17.584 51.8542 17.3438C51.9656 17.1035 52.0754 16.8618 52.1838 16.6187C52.4387 16.0503 52.717 15.4204 53.0188 14.729H54.3328C54.3269 14.9106 54.321 15.0967 54.3152 15.2871C54.3123 15.4746 54.3093 15.6606 54.3064 15.8452C54.3035 16.0269 54.3005 16.2026 54.2976 16.3726C54.2976 16.5425 54.2976 16.6992 54.2976 16.8428C54.2976 17.1826 54.2991 17.4888 54.302 17.7612C54.3049 18.0337 54.3093 18.3003 54.3152 18.561H54.7415V19.5059H54.3547C54.3635 19.7344 54.3738 19.9717 54.3855 20.2178C54.4001 20.4639 54.4163 20.71 54.4338 20.9561L53.2737 21.0703ZM53.3088 17.8755C53.3088 17.6089 53.3088 17.3481 53.3088 17.0933C53.3088 16.8354 53.3059 16.5864 53.3 16.3462L52.3025 18.561H53.3088V17.8755Z" fill="black"/>
<path d="M66.9089 21.189C66.6892 21.189 66.4783 21.1582 66.2761 21.0967C66.074 21.0381 65.8938 20.9487 65.7356 20.8286C65.5803 20.7085 65.4558 20.5576 65.3621 20.376C65.2712 20.1943 65.2258 19.9819 65.2258 19.7388C65.2258 19.5513 65.2537 19.3945 65.3093 19.2686C65.3679 19.1426 65.4397 19.0415 65.5247 18.9653C65.6096 18.8892 65.7004 18.8364 65.7971 18.8071C65.8938 18.7749 65.9832 18.7588 66.0652 18.7588C66.1501 18.7588 66.238 18.772 66.3289 18.7983C66.4226 18.8247 66.5061 18.8687 66.5793 18.9302C66.6555 18.9917 66.717 19.0752 66.7639 19.1807C66.8137 19.2832 66.8386 19.4121 66.8386 19.5674C66.8328 19.6582 66.8137 19.7432 66.7815 19.8223C66.7522 19.8896 66.7068 19.957 66.6453 20.0244C66.5837 20.0889 66.4973 20.1357 66.386 20.165C66.4709 20.2588 66.5676 20.332 66.676 20.3848C66.7874 20.4346 66.8811 20.4595 66.9573 20.4595C67.0393 20.4595 67.1287 20.436 67.2253 20.3892C67.325 20.3394 67.4172 20.2603 67.5022 20.1519C67.5872 20.0435 67.6575 19.9043 67.7131 19.7344C67.7717 19.5645 67.801 19.3564 67.801 19.1104C67.801 18.9521 67.7864 18.8071 67.7571 18.6753C67.7307 18.5405 67.6824 18.4175 67.6121 18.3062C67.5417 18.1948 67.4465 18.0938 67.3264 18.0029C67.2092 17.9092 67.0613 17.8228 66.8826 17.7437C66.821 17.7173 66.7522 17.6938 66.676 17.6733C66.6028 17.6499 66.5251 17.6309 66.4431 17.6162C66.3611 17.6016 66.2761 17.5884 66.1882 17.5767C66.1033 17.5649 66.0212 17.5562 65.9421 17.5503C65.7546 17.5356 65.5613 17.5269 65.3621 17.5239L65.551 14.896C65.6155 14.8784 65.7078 14.8623 65.8279 14.8477C65.9509 14.8301 66.0886 14.814 66.241 14.7993C66.3933 14.7847 66.5559 14.7715 66.7288 14.7598C66.9016 14.748 67.073 14.7363 67.2429 14.7246C67.6414 14.6982 68.0735 14.6748 68.5393 14.6543L68.4954 15.6914C68.4543 15.6914 68.3928 15.6914 68.3108 15.6914C68.2288 15.6885 68.135 15.687 68.0295 15.687C67.9241 15.6841 67.8098 15.6826 67.6868 15.6826C67.5667 15.6797 67.4465 15.6768 67.3264 15.6738C67.0422 15.668 66.7332 15.6606 66.3992 15.6519L66.3333 16.6626C66.4563 16.6743 66.5735 16.6846 66.6848 16.6934C66.7961 16.7021 66.906 16.7183 67.0144 16.7417C67.1228 16.7622 67.2327 16.793 67.344 16.834C67.4553 16.875 67.571 16.9321 67.6912 17.0054C68.072 17.2397 68.3533 17.5093 68.5349 17.814C68.7166 18.1187 68.8074 18.4731 68.8074 18.8774C68.8074 19.1616 68.762 19.4414 68.6711 19.7168C68.5803 19.9922 68.4514 20.2397 68.2844 20.4595C68.1204 20.6763 67.9211 20.8521 67.6868 20.9868C67.4524 21.1216 67.1931 21.189 66.9089 21.189Z" fill="black"/>
<path d="M86.9216 19.2729C86.9216 19.5952 86.8835 19.8823 86.8074 20.1343C86.7312 20.3833 86.6184 20.5942 86.469 20.7671C86.3225 20.937 86.1409 21.0659 85.9241 21.1538C85.7073 21.2446 85.4568 21.29 85.1726 21.29C84.8562 21.29 84.5706 21.2168 84.3157 21.0703C84.0608 20.9268 83.8425 20.71 83.6609 20.4199C83.4822 20.1299 83.3445 19.7681 83.2478 19.3345C83.1511 18.8979 83.1028 18.3882 83.1028 17.8052C83.1028 17.2222 83.1643 16.7241 83.2874 16.311C83.4133 15.8979 83.5789 15.561 83.7839 15.3003C83.989 15.0366 84.2219 14.8447 84.4827 14.7246C84.7463 14.6016 85.0159 14.54 85.2913 14.54C85.5667 14.54 85.7996 14.5811 85.99 14.6631C86.1833 14.7422 86.3401 14.8433 86.4602 14.9663C86.5803 15.0894 86.6667 15.2256 86.7195 15.375C86.7751 15.5215 86.803 15.6621 86.803 15.7969C86.803 15.9316 86.7825 16.0503 86.7415 16.1528C86.7034 16.2524 86.6521 16.3359 86.5876 16.4033C86.5232 16.4678 86.45 16.5176 86.3679 16.5527C86.2888 16.585 86.2083 16.6011 86.1262 16.6011C86.0471 16.6011 85.968 16.5908 85.8889 16.5703C85.8127 16.5498 85.7454 16.5146 85.6868 16.4648C85.6282 16.4121 85.5798 16.3447 85.5417 16.2627C85.5066 16.1777 85.489 16.0737 85.489 15.9507C85.4919 15.8892 85.4993 15.8291 85.511 15.7705C85.5227 15.7207 85.5403 15.6665 85.5637 15.6079C85.5901 15.5464 85.6282 15.4893 85.678 15.4365C85.634 15.3867 85.5857 15.3486 85.533 15.3223C85.4802 15.2959 85.429 15.2754 85.3792 15.2607C85.3235 15.2461 85.2678 15.2358 85.2122 15.23C85.0979 15.23 84.9822 15.2798 84.865 15.3794C84.7507 15.479 84.6453 15.6328 84.5486 15.8408C84.4519 16.0459 84.3713 16.3081 84.3069 16.6274C84.2454 16.9438 84.2131 17.3218 84.2102 17.7612C84.3684 17.5532 84.5471 17.3979 84.7463 17.2954C84.9485 17.1899 85.1536 17.1372 85.3616 17.1372C85.5608 17.1372 85.7542 17.1826 85.9417 17.2734C86.1292 17.3643 86.2947 17.499 86.4382 17.6777C86.5847 17.8564 86.7019 18.0791 86.7898 18.3457C86.8777 18.6123 86.9216 18.9214 86.9216 19.2729ZM85.2034 20.5693C85.4202 20.5693 85.5886 20.4565 85.7087 20.231C85.8318 20.0024 85.8933 19.6831 85.8933 19.2729C85.8933 19.0825 85.8743 18.9097 85.8362 18.7544C85.7981 18.5962 85.7454 18.4614 85.678 18.3501C85.6106 18.2358 85.5315 18.1479 85.4407 18.0864C85.3499 18.0249 85.2517 17.9941 85.1462 17.9941C85.0056 17.9941 84.8577 18.0483 84.7024 18.1567C84.55 18.2651 84.3948 18.4424 84.2366 18.6885C84.2659 19.0078 84.3098 19.2861 84.3684 19.5234C84.4299 19.7578 84.5032 19.9526 84.5881 20.1079C84.6731 20.2632 84.7668 20.3789 84.8694 20.4551C84.9749 20.5312 85.0862 20.5693 85.2034 20.5693Z" fill="black"/>
<defs>
<filter id="filter0_d_1570_9280" x="56.9094" y="8.24512" width="53.2288" height="54.5877" filterUnits="userSpaceOnUse" color-interpolation-filters="sRGB">
<feFlood flood-opacity="0" result="BackgroundImageFix"/>
<feColorMatrix in="SourceAlpha" type="matrix" values="0 0 0 0 0 0 0 0 0 0 0 0 0 0 0 0 0 0 127 0" result="hardAlpha"/>
<feOffset dy="4.38163"/>
<feGaussianBlur stdDeviation="2.19081"/>
<feComposite in2="hardAlpha" operator="out"/>
<feColorMatrix type="matrix" values="0 0 0 0 0 0 0 0 0 0 0 0 0 0 0 0 0 0 0.25 0"/>
<feBlend mode="normal" in2="BackgroundImageFix" result="effect1_dropShadow_1570_9280"/>
<feBlend mode="normal" in="SourceGraphic" in2="effect1_dropShadow_1570_9280" result="shape"/>
</filter>
</defs>
</svg>

<svg width="123" height="67" fill="none" xmlns="http://www.w3.org/2000/svg"><path d="M122.47 29.73a1.5 1.5 0 0 0-.33-2.1l-10.88-7.98a1.5 1.5 0 0 0-1.78 2.42l9.68 7.1-7.1 9.67a1.5 1.5 0 1 0 2.42 1.78l7.99-10.9ZM90.39 35.1l31.1-4.79-.46-2.96-31.1 4.79.46 2.96Z" fill="#C62222"/><path transform="matrix(.47493 -.88002 .92004 .39183 2.77 44.52)" fill="#fff" stroke="#000" stroke-width="2.51" d="M1.75-.61h20.18v38.56H1.75z"/><path transform="matrix(.83759 -.5463 .63671 .7711 11.76 26.29)" fill="#fff" stroke="#000" stroke-width="2.51" d="M1.85.28H23.3v36.46H1.85z"/><path transform="matrix(.95573 -.29425 .36388 .93145 26.42 15.45)" fill="#fff" stroke="#000" stroke-width="2.51" d="M1.66.8h22.09v35.32H1.66z"/><path transform="matrix(.98811 .15373 -.19028 .98173 48.05 9.32)" fill="#fff" stroke="#000" stroke-width="2.51" d="M1 1.43h22.29v34.93H1z"/><path transform="matrix(.93904 .3438 -.41711 .90886 62.83 9.05)" fill="#fff" stroke="#000" stroke-width="2.51" d="M.66 1.57h21.99v35.48H.66z"/><g filter="url(#a)"><path fill="#D57575" d="m81.56 8.25 24.2 11.15-20.28 34.67-24.2-11.16z"/><path transform="matrix(.90804 .41889 -.50481 .86323 82.5 8.25)" stroke="#000" stroke-width="2.75" d="M.55 1.76h23.89v37.41H.55z"/></g><path d="m13.93 38.96-1.16.11a37.68 37.68 0 0 0 .02-1.23 454.38 454.38 0 0 1 .02-2.39l-.02-1.2-.34.6-.76-.65a9.91 9.91 0 0 1 .45-.62 27.32 27.32 0 0 1 .58-.8l1.1-.05a374.63 374.63 0 0 0-.03 1.64v.78a5.73 5.73 0 0 0 .01.46 34.45 34.45 0 0 0 .09 2.74l.04.6ZM26.58 30v.04a.3.3 0 0 0-.01.06v.08a8.35 8.35 0 0 0 .05.83l-.67-.01h-.59a41.9 41.9 0 0 0-2.05.05v-.14a3.55 3.55 0 0 1 .18-1.04 3.93 3.93 0 0 1 1.01-1.5c.16-.15.31-.3.45-.46.14-.16.27-.33.37-.5a2.41 2.41 0 0 0 .34-1.23c0-.19-.02-.35-.06-.48a.76.76 0 0 0-.15-.3.5.5 0 0 0-.23-.16.77.77 0 0 0-.28-.05.7.7 0 0 0-.13.03.85.85 0 0 0-.13.05.58.58 0 0 0-.14.1c.05.05.08.12.1.18l.07.18.02.2c0 .1-.02.19-.06.26a.64.64 0 0 1-.16.2.68.68 0 0 1-.43.16l-.22-.03a.73.73 0 0 1-.5-.37.95.95 0 0 1-.1-.47c0-.2.05-.37.14-.52.09-.16.2-.3.36-.4.15-.12.33-.2.52-.26a2.12 2.12 0 0 1 1.28.02 1.67 1.67 0 0 1 .98.91c.1.23.16.5.16.8a2.83 2.83 0 0 1-.53 1.72c-.15.22-.32.42-.5.6l-.5.52a3.16 3.16 0 0 0-.74 1.15 13.96 13.96 0 0 0 2.15-.23ZM38.5 18.38h.02l.05.01.17-.01a.98.98 0 0 0 .69-.45c.06-.1.12-.23.16-.39.04-.15.06-.33.06-.55a.83.83 0 0 0-.47-.74.55.55 0 0 0-.24-.06.7.7 0 0 0-.13.03.85.85 0 0 0-.13.05.58.58 0 0 0-.14.1c.05.05.08.12.1.18l.07.18.02.2c0 .1-.02.19-.06.26a.64.64 0 0 1-.16.2.67.67 0 0 1-.43.16l-.22-.03a.73.73 0 0 1-.5-.37.95.95 0 0 1-.1-.47c0-.2.05-.37.14-.52.09-.16.2-.3.36-.4.15-.12.33-.2.52-.26a2.12 2.12 0 0 1 1.28.02 1.67 1.67 0 0 1 .99.91c.1.23.16.5.16.8a1.77 1.77 0 0 1-.32 1.03 1.83 1.83 0 0 1-.66.6 1.81 1.81 0 0 1 .66.52c.1.12.17.26.23.41a1.88 1.88 0 0 1-.07 1.34 1.74 1.74 0 0 1-1.64 1.02 2.12 2.12 0 0 1-1.15-.34 1.39 1.39 0 0 1-.36-.4 1.07 1.07 0 0 1-.13-.54c0-.2.03-.35.1-.46a.74.74 0 0 1 .49-.37l.23-.03c.07 0 .14.01.22.04.07.03.14.07.2.12.07.05.12.12.16.2.04.08.06.16.06.26 0 .07 0 .13-.02.2l-.06.18a.75.75 0 0 1-.1.18.53.53 0 0 0 .26.15l.13.02c.08 0 .16-.02.25-.05a.85.85 0 0 0 .4-.42.8.8 0 0 0 .06-.33c0-.22-.02-.4-.06-.56-.05-.15-.1-.28-.18-.38a.92.92 0 0 0-.23-.24 1.1 1.1 0 0 0-.64-.2h-.04v-.8ZM53.27 21.07a619.51 619.51 0 0 0 .03-1.56h-2.15l-.02-.7a18.03 18.03 0 0 0 .73-1.47l.32-.72.84-1.9h1.31l-.01.57-.01.56-.01.52v.47a86.98 86.98 0 0 0 .02 1.72h.42v.95h-.39a79.19 79.19 0 0 0 .08 1.45l-1.16.11Zm.04-3.2v-.78l-.01-.74-1 2.21h1v-.68ZM66.9 21.19c-.21 0-.42-.03-.62-.1-.2-.05-.39-.14-.54-.26a1.34 1.34 0 0 1-.38-.45 1.4 1.4 0 0 1-.13-.64c0-.19.02-.35.08-.47a.92.92 0 0 1 .21-.3.85.85 0 0 1 .8-.17.67.67 0 0 1 .44.38c.05.1.08.23.08.39a.8.8 0 0 1-.06.25.75.75 0 0 1-.13.2.54.54 0 0 1-.26.14c.08.1.18.17.29.22.1.05.2.08.28.08.08 0 .17-.02.27-.07s.19-.13.27-.24c.09-.1.16-.25.21-.42a2 2 0 0 0 .04-1.06 1.07 1.07 0 0 0-.42-.67 2.02 2.02 0 0 0-1.14-.42 9.2 9.2 0 0 0-.83-.05l.2-2.63a9.13 9.13 0 0 1 1.18-.14l.5-.04 1.3-.07-.04 1.04h-.19a8.04 8.04 0 0 0-.62 0l-.36-.02c-.29 0-.6 0-.93-.02l-.07 1.01a22.2 22.2 0 0 0 .68.08 2.06 2.06 0 0 1 .68.27c.38.23.66.5.84.8.19.3.28.66.28 1.07a2.66 2.66 0 0 1-.53 1.58c-.16.22-.36.4-.6.53-.23.13-.49.2-.77.2ZM86.92 19.27c0 .33-.04.61-.11.86-.08.25-.2.46-.34.64-.15.17-.33.3-.55.38a1.93 1.93 0 0 1-1.6-.08 1.85 1.85 0 0 1-.66-.65 3.53 3.53 0 0 1-.41-1.09 7.13 7.13 0 0 1 .04-3.02c.12-.41.29-.75.5-1.01a1.9 1.9 0 0 1 2.2-.64c.2.08.35.18.47.3.12.13.2.27.26.41.06.15.08.3.08.43s-.02.25-.06.35a.74.74 0 0 1-.15.25.63.63 0 0 1-.46.2.94.94 0 0 1-.24-.03.51.51 0 0 1-.35-.3.82.82 0 0 1-.03-.5l.05-.16a.59.59 0 0 1 .12-.17.48.48 0 0 0-.15-.12.94.94 0 0 0-.32-.09.54.54 0 0 0-.34.15c-.12.1-.22.25-.32.46-.1.2-.18.47-.24.79-.06.31-.1.7-.1 1.13.16-.2.34-.36.54-.46a1.32 1.32 0 0 1 1.69.38c.14.18.26.4.35.67.09.26.13.57.13.92Zm-1.72 1.3c.22 0 .39-.11.5-.34.13-.23.2-.55.2-.96 0-.19-.03-.36-.06-.52-.04-.15-.1-.29-.16-.4a.8.8 0 0 0-.24-.26.52.52 0 0 0-.3-.1.78.78 0 0 0-.44.17c-.15.1-.3.28-.46.53.03.32.07.6.13.83.06.24.13.43.22.59.08.15.18.27.28.35.1.07.22.1.33.1Z" fill="#000"/><defs><filter id="a" x="56.91" y="8.25" width="53.23" height="54.59" filterUnits="userSpaceOnUse" color-interpolation-filters="sRGB"><feFlood flood-opacity="0" result="BackgroundImageFix"/><feColorMatrix in="SourceAlpha" values="0 0 0 0 0 0 0 0 0 0 0 0 0 0 0 0 0 0 127 0" result="hardAlpha"/><feOffset dy="4.38"/><feGaussianBlur stdDeviation="2.19"/><feComposite in2="hardAlpha" operator="out"/><feColorMatrix values="0 0 0 0 0 0 0 0 0 0 0 0 0 0 0 0 0 0 0.25 0"/><feBlend in2="BackgroundImageFix" result="effect1_dropShadow_1570_9280"/><feBlend in="SourceGraphic" in2="effect1_dropShadow_1570_9280" result="shape"/></filter></defs></svg>
